img/flag-usa.svg

<svg width="20" height="12" viewBox="0 0 20 12" fill="none" xmlns="http://www.w3.org/2000/svg">
<path d="M20 0H0V12H20V0Z" fill="#B22234"/>
<path fill-rule="evenodd" clip-rule="evenodd" d="M20 1.74526H0V0.799805H20V1.74526ZM0 2.69071H20V3.63617H0V2.69071ZM20 5.52708H0V4.58162H20V5.52708ZM0 6.47253H20V7.41799H0V6.47253ZM20 9.3089H0V8.36344H20V9.3089ZM0 10.2543H20V11.1998H0V10.2543Z" fill="white"/>
<path d="M9.12 0H0V6.46154H9.12V0Z" fill="#3C3B6E"/>
<path d="M0.759362 0.22168L0.976391 0.889624L0.408203 0.476812H1.11052L0.542334 0.889624L0.759362 0.22168Z" fill="white"/>
<path d="M2.274 0.22168L2.49103 0.889624L1.92284 0.476812H2.62516L2.05697 0.889624L2.274 0.22168Z" fill="white"/>
<path d="M3.78864 0.22168L4.00567 0.889624L3.43748 0.476812H4.1398L3.57161 0.889624L3.78864 0.22168Z" fill="white"/>
<path d="M8.33256 0.22168L8.54959 0.889624L7.9814 0.476812H8.68372L8.11553 0.889624L8.33256 0.22168Z" fill="white"/>
<path d="M6.81792 0.22168L7.03495 0.889624L6.46676 0.476812H7.16908L6.60089 0.889624L6.81792 0.22168Z" fill="white"/>
<path d="M5.30328 0.22168L5.52031 0.889624L4.95212 0.476812H5.65444L5.08625 0.889624L5.30328 0.22168Z" fill="white"/>
<path d="M0.759362 1.55758L0.976391 2.22553L0.408203 1.81271H1.11052L0.542334 2.22553L0.759362 1.55758Z" fill="white"/>
<path d="M2.274 1.55758L2.49103 2.22553L1.92284 1.81271H2.62516L2.05697 2.22553L2.274 1.55758Z" fill="white"/>
<path d="M3.78864 1.55758L4.00567 2.22553L3.43748 1.81271H4.1398L3.57161 2.22553L3.78864 1.55758Z" fill="white"/>
<path d="M8.33256 1.55758L8.54959 2.22553L7.9814 1.81271H8.68372L8.11553 2.22553L8.33256 1.55758Z" fill="white"/>
<path d="M6.81792 1.55758L7.03495 2.22553L6.46676 1.81271H7.16908L6.60089 2.22553L6.81792 1.55758Z" fill="white"/>
<path d="M5.30328 1.55758L5.52031 2.22553L4.95212 1.81271H5.65444L5.08625 2.22553L5.30328 1.55758Z" fill="white"/>
<path d="M0.759362 2.89348L0.976391 3.56143L0.408203 3.14861H1.11052L0.542334 3.56143L0.759362 2.89348Z" fill="white"/>
<path d="M2.274 2.89348L2.49103 3.56143L1.92284 3.14861H2.62516L2.05697 3.56143L2.274 2.89348Z" fill="white"/>
<path d="M3.78864 2.89348L4.00567 3.56143L3.43748 3.14861H4.1398L3.57161 3.56143L3.78864 2.89348Z" fill="white"/>
<path d="M8.33256 2.89348L8.54959 3.56143L7.9814 3.14861H8.68372L8.11553 3.56143L8.33256 2.89348Z" fill="white"/>
<path d="M6.81792 2.89348L7.03495 3.56143L6.46676 3.14861H7.16908L6.60089 3.56143L6.81792 2.89348Z" fill="white"/>
<path d="M5.30328 2.89348L5.52031 3.56143L4.95212 3.14861H5.65444L5.08625 3.56143L5.30328 2.89348Z" fill="white"/>
<path d="M0.759362 4.22938L0.976391 4.89733L0.408203 4.48452H1.11052L0.542334 4.89733L0.759362 4.22938Z" fill="white"/>
<path d="M2.274 4.22938L2.49103 4.89733L1.92284 4.48452H2.62516L2.05697 4.89733L2.274 4.22938Z" fill="white"/>
<path d="M3.78864 4.22938L4.00567 4.89733L3.43748 4.48452H4.1398L3.57161 4.89733L3.78864 4.22938Z" fill="white"/>
<path d="M8.33256 4.22938L8.54959 4.89733L7.9814 4.48452H8.68372L8.11553 4.89733L8.33256 4.22938Z" fill="white"/>
<path d="M6.81792 4.22938L7.03495 4.89733L6.46676 4.48452H7.16908L6.60089 4.89733L6.81792 4.22938Z" fill="white"/>
<path d="M5.30328 4.22938L5.52031 4.89733L4.95212 4.48452H5.65444L5.08625 4.89733L5.30328 4.22938Z" fill="white"/>
<path d="M0.759362 5.56528L0.976391 6.23323L0.408203 5.82042H1.11052L0.542334 6.23323L0.759362 5.56528Z" fill="white"/>
<path d="M2.274 5.56528L2.49103 6.23323L1.92284 5.82042H2.62516L2.05697 6.23323L2.274 5.56528Z" fill="white"/>
<path d="M3.78864 5.56528L4.00567 6.23323L3.43748 5.82042H4.1398L3.57161 6.23323L3.78864 5.56528Z" fill="white"/>
<path d="M8.33256 5.56528L8.54959 6.23323L7.9814 5.82042H8.68372L8.11553 6.23323L8.33256 5.56528Z" fill="white"/>
<path d="M6.81792 5.56528L7.03495 6.23323L6.46676 5.82042H7.16908L6.60089 6.23323L6.81792 5.56528Z" fill="white"/>
<path d="M5.30328 5.56528L5.52031 6.23323L4.95212 5.82042H5.65444L5.08625 6.23323L5.30328 5.56528Z" fill="white"/>
<path d="M1.51358 0.88963L1.73061 1.55758L1.16242 1.14476H1.86474L1.29655 1.55758L1.51358 0.88963Z" fill="white"/>
<path d="M3.02822 0.88963L3.24525 1.55758L2.67706 1.14476H3.37938L2.81119 1.55758L3.02822 0.88963Z" fill="white"/>
<path d="M4.54286 0.88963L4.75989 1.55758L4.1917 1.14476H4.89402L4.32583 1.55758L4.54286 0.88963Z" fill="white"/>
<path d="M7.57214 0.88963L7.78917 1.55758L7.22098 1.14476H7.9233L7.35511 1.55758L7.57214 0.88963Z" fill="white"/>
<path d="M6.0575 0.88963L6.27453 1.55758L5.70634 1.14476H6.40866L5.84047 1.55758L6.0575 0.88963Z" fill="white"/>
<path d="M1.51358 2.22553L1.73061 2.89348L1.16242 2.48066H1.86474L1.29655 2.89348L1.51358 2.22553Z" fill="white"/>
<path d="M3.02822 2.22553L3.24525 2.89348L2.67706 2.48066H3.37938L2.81119 2.89348L3.02822 2.22553Z" fill="white"/>
<path d="M4.54286 2.22553L4.75989 2.89348L4.1917 2.48066H4.89402L4.32583 2.89348L4.54286 2.22553Z" fill="white"/>
<path d="M7.57214 2.22553L7.78917 2.89348L7.22098 2.48066H7.9233L7.35511 2.89348L7.57214 2.22553Z" fill="white"/>
<path d="M6.0575 2.22553L6.27453 2.89348L5.70634 2.48066H6.40866L5.84047 2.89348L6.0575 2.22553Z" fill="white"/>
<path d="M1.51358 3.56143L1.73061 4.22938L1.16242 3.81657H1.86474L1.29655 4.22938L1.51358 3.56143Z" fill="white"/>
<path d="M3.02822 3.56143L3.24525 4.22938L2.67706 3.81657H3.37938L2.81119 4.22938L3.02822 3.56143Z" fill="white"/>
<path d="M4.54286 3.56143L4.75989 4.22938L4.1917 3.81657H4.89402L4.32583 4.22938L4.54286 3.56143Z" fill="white"/>
<path d="M7.57214 3.56143L7.78917 4.22938L7.22098 3.81657H7.9233L7.35511 4.22938L7.57214 3.56143Z" fill="white"/>
<path d="M6.0575 3.56143L6.27453 4.22938L5.70634 3.81657H6.40866L5.84047 4.22938L6.0575 3.56143Z" fill="white"/>
<path d="M1.51358 4.89733L1.73061 5.56528L1.16242 5.15247H1.86474L1.29655 5.56528L1.51358 4.89733Z" fill="white"/>
<path d="M3.02822 4.89733L3.24525 5.56528L2.67706 5.15247H3.37938L2.81119 5.56528L3.02822 4.89733Z" fill="white"/>
<path d="M4.54286 4.89733L4.75989 5.56528L4.1917 5.15247H4.89402L4.32583 5.56528L4.54286 4.89733Z" fill="white"/>
<path d="M7.57214 4.89733L7.78917 5.56528L7.22098 5.15247H7.9233L7.35511 5.56528L7.57214 4.89733Z" fill="white"/>
<path d="M6.0575 4.89733L6.27453 5.56528L5.70634 5.15247H6.40866L5.84047 5.56528L6.0575 4.89733Z" fill="white"/>
</svg>

<svg width="20" height="12" fill="none" xmlns="http://www.w3.org/2000/svg"><path d="M20 0H0v12h20V0z" fill="#B22234"/><path fill-rule="evenodd" clip-rule="evenodd" d="M20 1.745H0V.8h20v.945zM0 2.691h20v.945H0v-.945zm20 2.836H0v-.945h20v.945zM0 6.473h20v.945H0v-.945zm20 2.836H0v-.946h20v.946zm-20 .945h20v.946H0v-.946z" fill="#fff"/><path d="M9.12 0H0v6.462h9.12V0z" fill="#3C3B6E"/><path d="M.76.222L.975.89.408.477h.703L.542.89.76.222zM2.274.222l.217.668-.568-.413h.702L2.057.89l.217-.668zM3.789.222l.217.668-.569-.413h.703L3.572.89l.217-.668zM8.333.222L8.55.89 7.98.477h.703L8.116.89l.217-.668zM6.818.222l.217.668-.568-.413h.702L6.601.89l.217-.668zM5.303.222L5.52.89 4.952.477h.702L5.086.89l.217-.668zM.76 1.558l.216.668-.568-.413h.703l-.569.413.217-.668zM2.274 1.558l.217.668-.568-.413h.702l-.568.413.217-.668zM3.789 1.558l.217.668-.569-.413h.703l-.568.413.217-.668zM8.333 1.558l.217.668-.569-.413h.703l-.568.413.217-.668zM6.818 1.558l.217.668-.568-.413h.702l-.568.413.217-.668zM5.303 1.558l.217.668-.568-.413h.702l-.568.413.217-.668zM.76 2.893l.216.668-.568-.412h.703l-.569.412.217-.668zM2.274 2.893l.217.668-.568-.412h.702l-.568.412.217-.668zM3.789 2.893l.217.668-.569-.412h.703l-.568.412.217-.668zM8.333 2.893l.217.668-.569-.412h.703l-.568.412.217-.668zM6.818 2.893l.217.668-.568-.412h.702l-.568.412.217-.668zM5.303 2.893l.217.668-.568-.412h.702l-.568.412.217-.668zM.76 4.23l.216.667-.568-.412h.703l-.569.412.217-.668zM2.274 4.23l.217.667-.568-.412h.702l-.568.412.217-.668zM3.789 4.23l.217.667-.569-.412h.703l-.568.412.217-.668zM8.333 4.23l.217.667-.569-.412h.703l-.568.412.217-.668zM6.818 4.23l.217.667-.568-.412h.702l-.568.412.217-.668zM5.303 4.23l.217.667-.568-.412h.702l-.568.412.217-.668zM.76 5.565l.216.668-.568-.413h.703l-.569.413.217-.668zM2.274 5.565l.217.668-.568-.413h.702l-.568.413.217-.668zM3.789 5.565l.217.668-.569-.413h.703l-.568.413.217-.668zM8.333 5.565l.217.668-.569-.413h.703l-.568.413.217-.668zM6.818 5.565l.217.668-.568-.413h.702l-.568.413.217-.668zM5.303 5.565l.217.668-.568-.413h.702l-.568.413.217-.668zM1.514.89l.217.668-.569-.413h.703l-.568.413.217-.668zM3.028.89l.217.668-.568-.413h.702l-.568.413.217-.668zM4.543.89l.217.668-.568-.413h.702l-.568.413.217-.668zM7.572.89l.217.668-.568-.413h.702l-.568.413.217-.668zM6.058.89l.217.668-.569-.413h.703l-.569.413.218-.668zM1.514 2.226l.217.667-.569-.412h.703l-.568.412.217-.667zM3.028 2.226l.217.667-.568-.412h.702l-.568.412.217-.667zM4.543 2.226l.217.667-.568-.412h.702l-.568.412.217-.667zM7.572 2.226l.217.667-.568-.412h.702l-.568.412.217-.667zM6.058 2.226l.217.667-.569-.412h.703l-.569.412.218-.667zM1.514 3.561l.217.668-.569-.412h.703l-.568.412.217-.668zM3.028 3.561l.217.668-.568-.412h.702l-.568.412.217-.668zM4.543 3.561l.217.668-.568-.412h.702l-.568.412.217-.668zM7.572 3.561l.217.668-.568-.412h.702l-.568.412.217-.668zM6.058 3.561l.217.668-.569-.412h.703l-.569.412.218-.668zM1.514 4.897l.217.668-.569-.413h.703l-.568.413.217-.668zM3.028 4.897l.217.668-.568-.413h.702l-.568.413.217-.668zM4.543 4.897l.217.668-.568-.413h.702l-.568.413.217-.668zM7.572 4.897l.217.668-.568-.413h.702l-.568.413.217-.668zM6.058 4.897l.217.668-.569-.413h.703l-.569.413.218-.668z" fill="#fff"/></svg>
